X: 27460
T: Molly From Riverhead
R: reel
M: 4/4
K: Aminor
|:ccAB cde2|dBAB dBAG|ccAB cde2|dBAG A2A2:|
|:ggA/c/e gec2|dBBG dBBG|AgAe gec2|dBAG A2A2:|

